X: 35052
T: Rolling In The Barrel
R: reel
M: 4/4
K: Dmajor
A,2|~A,2EA,2E2{F}E|DB,G,A, B,G,A,2|~A,2EA,2 ~E3|D=FEA, {B,}A,G,:|
A2 {c}BA eA {c}BA|GFGB dcdB|A2{c}BA eA{c}BA|GED=F EA,{B,}A,G,|
A2 {c}BA eA {c}BA|GFGB dcdB|AB{c}BA B=cBA|GED=F E2DB,||

